icon-themes/sifr_svg/cmd/sc_displaymasterobjects.svg

<svg viewBox="0 0 16 16" xmlns="http://www.w3.org/2000/svg"><path d="m1 3v10h.0527344c.3191536-1.314099.9725802-1.971267 1.9472656-2.855469v-2.144531h2.3671875l1.1035156-1h-3.4707031v-2h10v1.53125c.612689-.4667214 1.235257-.5126077 2-.53125v-3zm7.5 4c-.3743815 0-.7.1519549-.9824219.4003906l-4.7167969 4.2753904v.003907a2.5 2.5 0 0 0 -.8007812 1.820312 2.5 2.5 0 0 0 2.5 2.5 2.5 2.5 0 0 0 2.5-2.5 2.5 2.5 0 0 0 -.5-1.5h2.0019531a2.5 2.5 0 0 0 -.5019531 1.5 2.5 2.5 0 0 0 2.5 2.5 2.5 2.5 0 0 0 2.5-2.5 2.5 2.5 0 0 0 -2-2.453125l3.130859-2.8886719c.151074-.1582031.233269-.1582031.369141-.1582031h.5v.5c0 .2761424.223858.5.5.5s.5-.2238576.5-.5v-.5c0-.7012708-.15753-1-1-1h-.5c-.374381 0-.714607.1519549-1 .4003906l-3.9667969 3.5996094h-4.5175781l3.1152344-2.8417969c.1510731-.1582031.2332682-.1582031.3691406-.1582031h.5v.5c0 .2761424.2238576.5.5.5s.5-.2238576.5-.5v-.5c0-.7012708-.1575303-1-1-1zm2.333984 0c.153259.3477526.166016.699522.166016 1h.351562l1.101563-1zm3.511719 2.3222656c-.452359.4160331-.898555.8324024-1.345703 1.2480464v.722657c.485374.453006.736406 1.139106.949219 1.707031h1.050781v-3.1210938c-.130244-.0595039-.249431-.1358699-.357422-.2324218h-.001953c-.107773-.096535-.208839-.2032862-.294922-.3242188zm-9.845703 2.6777344a1.5 1.5 0 0 1 1.5 1.5 1.5 1.5 0 0 1 -1.5 1.5 1.5 1.5 0 0 1 -1.5-1.5 1.5 1.5 0 0 1 1.5-1.5zm6 0a1.5 1.5 0 0 1 1.5 1.5 1.5 1.5 0 0 1 -1.5 1.5 1.5 1.5 0 0 1 -1.5-1.5 1.5 1.5 0 0 1 1.5-1.5z" fill="#555753"/></svg>

<svg xmlns="http://www.w3.org/2000/svg" viewBox="0 0 16 16">
  <path
     style="fill:#555753"
     d="M 1 3 L 1 13 L 1.0527344 13 C 1.371888 11.685901 2.0253146 11.028733 3 10.144531 L 3 8 L 5.3671875 8 L 6.4707031 7 L 3 7 L 3 5 L 13 5 L 13 6.53125 C 13.612689 6.0645286 14.235257 6.0186423 15 6 L 15 3 L 1 3 z M 8.5 7 C 8.1256185 7 7.8 7.1519549 7.5175781 7.4003906 L 2.8007812 11.675781 L 2.8007812 11.679688 A 2.5 2.5 0 0 0 2 13.5 A 2.5 2.5 0 0 0 4.5 16 A 2.5 2.5 0 0 0 7 13.5 A 2.5 2.5 0 0 0 6.5 12 L 8.5019531 12 A 2.5 2.5 0 0 0 8 13.5 A 2.5 2.5 0 0 0 10.5 16 A 2.5 2.5 0 0 0 13 13.5 A 2.5 2.5 0 0 0 11 11.046875 L 14.130859 8.1582031 C 14.281933 8 14.364128 8 14.5 8 L 15 8 L 15 8.5 C 15 8.7761424 15.223858 9 15.5 9 C 15.776142 9 16 8.7761424 16 8.5 L 16 8 C 16 7.2987292 15.84247 7 15 7 L 14.5 7 C 14.125619 7 13.785393 7.1519549 13.5 7.4003906 L 9.5332031 11 L 5.015625 11 L 8.1308594 8.1582031 C 8.2819325 8 8.3641276 8 8.5 8 L 9 8 L 9 8.5 C 9 8.7761424 9.2238576 9 9.5 9 C 9.7761424 9 10 8.7761424 10 8.5 L 10 8 C 10 7.2987292 9.8424697 7 9 7 L 8.5 7 z M 10.833984 7 C 10.987243 7.3477526 11 7.699522 11 8 L 11.351562 8 L 12.453125 7 L 10.833984 7 z M 14.345703 9.3222656 C 13.893344 9.7382987 13.447148 10.154668 13 10.570312 L 13 11.292969 C 13.485374 11.745975 13.736406 12.432075 13.949219 13 L 15 13 L 15 9.8789062 C 14.869756 9.8194023 14.750569 9.7430363 14.642578 9.6464844 L 14.640625 9.6464844 C 14.532852 9.5499494 14.431786 9.4431982 14.345703 9.3222656 z M 4.5 12 A 1.5 1.5 0 0 1 6 13.5 A 1.5 1.5 0 0 1 4.5 15 A 1.5 1.5 0 0 1 3 13.5 A 1.5 1.5 0 0 1 4.5 12 z M 10.5 12 A 1.5 1.5 0 0 1 12 13.5 A 1.5 1.5 0 0 1 10.5 15 A 1.5 1.5 0 0 1 9 13.5 A 1.5 1.5 0 0 1 10.5 12 z "
     />
</svg>
